X: 736
T: Oklahoma Redbird
B: jims roots
M:2/4
L:1/8
R: Reel
Q: 1/4=100
K:Bb
V:1 
DE | "Bb"F2=EF "Eb"GF_EF | "Bb"DFBc d2cd | "Eb"edcB "F"AFAc | "Bb"BdcB "F"AGFD|
"Bb"F2=EF "Eb"GF_EF | "Bb"DFBc d2cd | "Eb"edcB "F"AFAc | "Bb"Bd"F"cA "Bb"B2 :|
|: FA | "Bb"B2FB d2Bd | f2df b2fg | "F"a2ga "Eb"g=ece | "F"g2fg fedc |
"Bb"B2FB d2Bd | f2df b2fg | "F"a2ga "Eb"gecA | "Bb"B2cA B2:|
FG|: "D" ABAc dcde | fefg a^gaf | "A7"e2aA cdeA | "D"dcdA BAFG |
"D"A2Ac dcde | fefg abaf | "A"e^gaA cdeA | [1 "D"d2 de d2:| [2 "D"d2 de faaa ||
|: "B7"[B6b][B2b]- | [B2b] Bc dcBB | "A"[c2a] [c2a]- [c2a] [ca][cb] | [c2a] AB cBA2 | "G"[G,2D][B2g]- [Bg][Ba] [B2g] |
"A"fefg abaf | "A7"e^gaf ecAc | [1 "D"d2 de fga^a :| [2 "D"[d3F][dF][d4F] |]
% abcbook-tune_id 6298c2799c4345da96a52510


% abcbook-boost 0
% abcbook-tablature 
% abcbook-transpose 
% abcbook-lastupdated 1654178425812
% abcbook-soundfonts 
% abcbook-repeats 1


